X:1
T:Simeon (Sankey), 12.9.12.9 D
T:Simeon (Sankey), 12.9.12.9 D
T:Ira David Sankey, 1895
T:Public Domain Courtesy of the Cyber Hymnal™
C:Ira David Sankey, 1895
Z:Public Domain
Z:Courtesy of the Cyber Hymnal™
%%score ( 1 2 ) ( 3 4 )
L:1/8
Q:1/4=105
M:4/4
K:D
V:1 treble 
V:2 treble 
V:3 bass 
V:4 bass 
V:1
 [FA]>[FA] | [Fd]2 [Fd]>[Fd] [Fd]2 [Ac]>[GB] | [FA]2 D>[CE] [DF]2 [DF]>[EG] | %3
 [FA]2 [FA]>[FA] [FA]2 [EG]>[DF] | [CE]6 A>A | [Fd]2 [Fd]>[Fd] [Fd]2 [Ac]>[GB] | %6
 [FA]2 D>[CE] [DF]2 [DB]>[DB] | [DA]2 D[DG] [DF]2 [DF]>[CE] | D6 [A,C]>[B,D] | %9
 [CE]2 [CE]>[DF] [EG]2 [DF]>[CE] | [DF]2 [DF]>[EG] [FA]2 [FA]>[FA] | %11
 [EA]2 [E^G]>[EA] [EB]2 [Ee]>[Ed] | [Ec]6 A>A | [Fd]2 [Fd]>[Fd] [Fd]2 [Ac]>[GB] | %14
 [FA]2 D>[CE] [DF]2 [DB]>[DB] | [DA]2 D[DG] [DF]2 [DF]>[CE] | D6 |] %17
V:2
 x2 | x8 | x2 D3/2 x9/2 | x8 | x6 A>A | x8 | x2 D3/2 x9/2 | x2 D x5 | D6 x2 | x8 | x8 | x8 | %12
 x6 A>A | x8 | x2 D3/2 x9/2 | x2 D x5 | D6 |] %17
V:3
 [D,D]>[D,D] | [D,A,]2 [D,A,]>[D,A,] [D,A,]2 [D,B,]>[D,C] | %2
 [D,D]2 [F,A,]>[E,A,] [D,A,]2 [D,A,]>[D,A,] | [D,D]2 [D,D]>[D,D] [D,D]2 [C,A,]>[D,A,] | A,6 A,>A, | %5
 [D,A,]2 [D,A,]>[D,A,] [D,A,]2 [D,B,]>[D,C] | [D,D]2 [F,A,]>[E,A,] [D,A,]2 G,>G, | %7
 [F,A,]2 [B,,B,][G,,B,] [A,,A,]2 [A,,A,]>[A,,G,] | [D,F,]6 [A,,E,]>[A,,E,] | %9
 [A,,A,]2 [A,,A,]>[A,,A,] [A,,A,]2 [A,,A,]>[A,,A,] | [D,A,]2 [D,A,]>[D,A,] [D,D]2 [D,D]>[D,D] | %11
 [E,C]2 [E,B,]>[E,C] [E,D]2 [^G,B,]>[G,B,] | A,6 A,>A, | %13
 [D,A,]2 [D,A,]>[D,A,] [D,A,]2 [D,B,]>[D,C] | [D,D]2 [F,A,]>[E,A,] [D,A,]2 G,>G, | %15
 [F,A,]2 [B,,B,][G,,B,] [A,,A,]2 [A,,A,]>[A,,G,] | [D,F,]6 |] %17
V:4
 x2 | x8 | x8 | x8 | A,6 A,>A, | x8 | x6 G,>G, | x8 | x8 | x8 | x8 | x8 | A,6 A,>A, | x8 | %14
 x6 G,>G, | x8 | x6 |] %17

